dist/img/card/discount15.svg

<svg width="88" height="88" viewBox="0 0 88 88" fill="none" xmlns="http://www.w3.org/2000/svg">
<circle cx="44" cy="44" r="44" fill="#FFBD13"/>
<path d="M10.71 44.395H18.48V47.485H10.71V44.395ZM35.7164 52.225V55H23.7164V52.225H28.1114V39.58C28.1114 39.08 28.1264 38.565 28.1564 38.035L25.0364 40.645C24.8564 40.785 24.6764 40.875 24.4964 40.915C24.3264 40.945 24.1614 40.945 24.0014 40.915C23.8514 40.885 23.7164 40.835 23.5964 40.765C23.4764 40.685 23.3864 40.6 23.3264 40.51L22.1564 38.905L28.7714 33.28H31.8164V52.225H35.7164ZM43.6838 41.185C44.1638 41.085 44.6238 41.015 45.0638 40.975C45.5038 40.925 45.9288 40.9 46.3388 40.9C47.4788 40.9 48.4838 41.07 49.3538 41.41C50.2238 41.75 50.9538 42.22 51.5438 42.82C52.1338 43.42 52.5788 44.125 52.8788 44.935C53.1788 45.735 53.3288 46.6 53.3288 47.53C53.3288 48.68 53.1238 49.73 52.7138 50.68C52.3138 51.63 51.7538 52.445 51.0338 53.125C50.3138 53.795 49.4588 54.315 48.4688 54.685C47.4888 55.055 46.4188 55.24 45.2588 55.24C44.5788 55.24 43.9338 55.17 43.3238 55.03C42.7138 54.89 42.1388 54.705 41.5988 54.475C41.0688 54.235 40.5738 53.965 40.1138 53.665C39.6638 53.355 39.2588 53.03 38.8988 52.69L40.0388 51.115C40.2788 50.775 40.5938 50.605 40.9838 50.605C41.2338 50.605 41.4888 50.685 41.7488 50.845C42.0088 51.005 42.3038 51.18 42.6338 51.37C42.9738 51.56 43.3688 51.735 43.8188 51.895C44.2788 52.055 44.8288 52.135 45.4688 52.135C46.1488 52.135 46.7488 52.025 47.2688 51.805C47.7888 51.585 48.2188 51.28 48.5588 50.89C48.9088 50.49 49.1688 50.02 49.3388 49.48C49.5188 48.93 49.6088 48.335 49.6088 47.695C49.6088 46.515 49.2638 45.595 48.5738 44.935C47.8938 44.265 46.8838 43.93 45.5438 43.93C44.5138 43.93 43.4588 44.12 42.3788 44.5L40.0688 43.84L41.8688 33.31H52.5788V34.885C52.5788 35.415 52.4138 35.845 52.0838 36.175C51.7538 36.505 51.1938 36.67 50.4038 36.67H44.4488L43.6838 41.185ZM66.1711 38.56C66.1711 39.38 66.0311 40.12 65.7511 40.78C65.4811 41.44 65.1161 42.005 64.6561 42.475C64.1961 42.935 63.6611 43.29 63.0511 43.54C62.4411 43.79 61.8061 43.915 61.1461 43.915C60.4261 43.915 59.7611 43.79 59.1511 43.54C58.5411 43.29 58.0111 42.935 57.5611 42.475C57.1211 42.005 56.7761 41.44 56.5261 40.78C56.2761 40.12 56.1511 39.38 56.1511 38.56C56.1511 37.72 56.2761 36.96 56.5261 36.28C56.7761 35.6 57.1211 35.025 57.5611 34.555C58.0111 34.085 58.5411 33.725 59.1511 33.475C59.7611 33.215 60.4261 33.085 61.1461 33.085C61.8661 33.085 62.5311 33.215 63.1411 33.475C63.7611 33.725 64.2961 34.085 64.7461 34.555C65.1961 35.025 65.5461 35.6 65.7961 36.28C66.0461 36.96 66.1711 37.72 66.1711 38.56ZM63.3211 38.56C63.3211 37.98 63.2611 37.495 63.1411 37.105C63.0311 36.715 62.8761 36.4 62.6761 36.16C62.4861 35.92 62.2561 35.75 61.9861 35.65C61.7261 35.54 61.4461 35.485 61.1461 35.485C60.8461 35.485 60.5661 35.54 60.3061 35.65C60.0461 35.75 59.8211 35.92 59.6311 36.16C59.4511 36.4 59.3061 36.715 59.1961 37.105C59.0861 37.495 59.0311 37.98 59.0311 38.56C59.0311 39.12 59.0861 39.59 59.1961 39.97C59.3061 40.34 59.4511 40.64 59.6311 40.87C59.8211 41.1 60.0461 41.265 60.3061 41.365C60.5661 41.465 60.8461 41.515 61.1461 41.515C61.4461 41.515 61.7261 41.465 61.9861 41.365C62.2561 41.265 62.4861 41.1 62.6761 40.87C62.8761 40.64 63.0311 40.34 63.1411 39.97C63.2611 39.59 63.3211 39.12 63.3211 38.56ZM73.3861 33.895C73.5161 33.745 73.6661 33.61 73.8361 33.49C74.0161 33.37 74.2661 33.31 74.5861 33.31H77.2861L61.1761 54.445C61.0461 54.605 60.8911 54.74 60.7111 54.85C60.5311 54.95 60.3111 55 60.0511 55H57.2911L73.3861 33.895ZM78.4261 49.9C78.4261 50.72 78.2861 51.46 78.0061 52.12C77.7361 52.78 77.3711 53.345 76.9111 53.815C76.4511 54.275 75.9161 54.635 75.3061 54.895C74.6961 55.145 74.0611 55.27 73.4011 55.27C72.6811 55.27 72.0161 55.145 71.4061 54.895C70.7961 54.635 70.2661 54.275 69.8161 53.815C69.3761 53.345 69.0311 52.78 68.7811 52.12C68.5311 51.46 68.4061 50.72 68.4061 49.9C68.4061 49.06 68.5311 48.3 68.7811 47.62C69.0311 46.94 69.3761 46.365 69.8161 45.895C70.2661 45.425 70.7961 45.065 71.4061 44.815C72.0161 44.555 72.6811 44.425 73.4011 44.425C74.1211 44.425 74.7861 44.555 75.3961 44.815C76.0161 45.065 76.5461 45.425 76.9861 45.895C77.4361 46.365 77.7861 46.94 78.0361 47.62C78.2961 48.3 78.4261 49.06 78.4261 49.9ZM75.5611 49.9C75.5611 49.32 75.5061 48.835 75.3961 48.445C75.2861 48.055 75.1311 47.74 74.9311 47.5C74.7411 47.26 74.5111 47.09 74.2411 46.99C73.9811 46.88 73.7011 46.825 73.4011 46.825C73.1011 46.825 72.8211 46.88 72.5611 46.99C72.3011 47.09 72.0761 47.26 71.8861 47.5C71.6961 47.74 71.5461 48.055 71.4361 48.445C71.3361 48.835 71.2861 49.32 71.2861 49.9C71.2861 50.46 71.3361 50.93 71.4361 51.31C71.5461 51.69 71.6961 51.995 71.8861 52.225C72.0761 52.455 72.3011 52.62 72.5611 52.72C72.8211 52.82 73.1011 52.87 73.4011 52.87C73.7011 52.87 73.9811 52.82 74.2411 52.72C74.5111 52.62 74.7411 52.455 74.9311 52.225C75.1311 51.995 75.2861 51.69 75.3961 51.31C75.5061 50.93 75.5611 50.46 75.5611 49.9Z" fill="white"/>
</svg>

<svg width="88" height="88" fill="none" xmlns="http://www.w3.org/2000/svg"><circle cx="44" cy="44" r="44" fill="#FFBD13"/><path d="M10.71 44.395h7.77v3.09h-7.77v-3.09Zm25.006 7.83V55h-12v-2.775h4.395V39.58c0-.5.015-1.015.045-1.545l-3.12 2.61c-.18.14-.36.23-.54.27a1.305 1.305 0 0 1-.9-.15.953.953 0 0 1-.27-.255l-1.17-1.605 6.615-5.625h3.045v18.945h3.9Zm7.968-11.04c.48-.1.94-.17 1.38-.21.44-.05.865-.075 1.275-.075 1.14 0 2.145.17 3.015.51.87.34 1.6.81 2.19 1.41.59.6 1.035 1.305 1.335 2.115.3.8.45 1.665.45 2.595 0 1.15-.205 2.2-.615 3.15-.4.95-.96 1.765-1.68 2.445a7.647 7.647 0 0 1-2.565 1.56c-.98.37-2.05.555-3.21.555a8.63 8.63 0 0 1-1.935-.21c-.61-.14-1.185-.325-1.725-.555a11.08 11.08 0 0 1-1.485-.81c-.45-.31-.855-.635-1.215-.975l1.14-1.575c.24-.34.555-.51.945-.51.25 0 .505.08.765.24.26.16.555.335.885.525.34.19.735.365 1.185.525.46.16 1.01.24 1.65.24.68 0 1.28-.11 1.8-.33.52-.22.95-.525 1.29-.915.35-.4.61-.87.78-1.41.18-.55.27-1.145.27-1.785 0-1.18-.345-2.1-1.035-2.76-.68-.67-1.69-1.005-3.03-1.005-1.03 0-2.085.19-3.165.57l-2.31-.66 1.8-10.53h10.71v1.575c0 .53-.165.96-.495 1.29-.33.33-.89.495-1.68.495h-5.955l-.765 4.515ZM66.17 38.56c0 .82-.14 1.56-.42 2.22a5.214 5.214 0 0 1-1.095 1.695 4.976 4.976 0 0 1-3.51 1.44 5.21 5.21 0 0 1-1.995-.375 4.682 4.682 0 0 1-1.59-1.065 5.08 5.08 0 0 1-1.035-1.695c-.25-.66-.375-1.4-.375-2.22 0-.84.125-1.6.375-2.28.25-.68.595-1.255 1.035-1.725.45-.47.98-.83 1.59-1.08.61-.26 1.275-.39 1.995-.39.72 0 1.385.13 1.995.39.62.25 1.155.61 1.605 1.08.45.47.8 1.045 1.05 1.725.25.68.375 1.44.375 2.28Zm-2.85 0c0-.58-.06-1.065-.18-1.455-.11-.39-.265-.705-.465-.945-.19-.24-.42-.41-.69-.51-.26-.11-.54-.165-.84-.165-.3 0-.58.055-.84.165-.26.1-.485.27-.675.51-.18.24-.325.555-.435.945-.11.39-.165.875-.165 1.455 0 .56.055 1.03.165 1.41.11.37.255.67.435.9.19.23.415.395.675.495.26.1.54.15.84.15.3 0 .58-.05.84-.15.27-.1.5-.265.69-.495.2-.23.355-.53.465-.9.12-.38.18-.85.18-1.41Zm10.065-4.665a2.5 2.5 0 0 1 .45-.405c.18-.12.43-.18.75-.18h2.7l-16.11 21.135a1.81 1.81 0 0 1-.465.405c-.18.1-.4.15-.66.15h-2.76l16.095-21.105Zm5.04 16.005c0 .82-.14 1.56-.42 2.22a5.214 5.214 0 0 1-1.095 1.695c-.46.46-.995.82-1.605 1.08-.61.25-1.245.375-1.905.375a5.21 5.21 0 0 1-1.995-.375 4.87 4.87 0 0 1-1.59-1.08 5.08 5.08 0 0 1-1.035-1.695c-.25-.66-.375-1.4-.375-2.22 0-.84.125-1.6.375-2.28.25-.68.595-1.255 1.035-1.725.45-.47.98-.83 1.59-1.08.61-.26 1.275-.39 1.995-.39.72 0 1.385.13 1.995.39.62.25 1.15.61 1.59 1.08.45.47.8 1.045 1.05 1.725.26.68.39 1.44.39 2.28Zm-2.865 0c0-.58-.055-1.065-.165-1.455-.11-.39-.265-.705-.465-.945-.19-.24-.42-.41-.69-.51-.26-.11-.54-.165-.84-.165-.3 0-.58.055-.84.165-.26.1-.485.27-.675.51-.19.24-.34.555-.45.945-.1.39-.15.875-.15 1.455 0 .56.05 1.03.15 1.41.11.38.26.685.45.915.19.23.415.395.675.495.26.1.54.15.84.15.3 0 .58-.05.84-.15.27-.1.5-.265.69-.495.2-.23.355-.535.465-.915.11-.38.165-.85.165-1.41Z" fill="#fff"/></svg>
